tools/download-figma-icons/icons/solid/slider.svg

<svg width="24" height="24" viewBox="0 0 24 24" fill="none" xmlns="http://www.w3.org/2000/svg">
<path fill-rule="evenodd" clip-rule="evenodd" d="M5.25 3C4.83579 3 4.5 3.33579 4.5 3.75V5.37803C3.62611 5.68691 3 6.52034 3 7.5C3 8.47966 3.62611 9.31309 4.5 9.62197V20.25C4.5 20.6642 4.83579 21 5.25 21C5.66421 21 6 20.6642 6 20.25V9.62197C6.87389 9.31309 7.5 8.47966 7.5 7.5C7.5 6.52034 6.87389 5.68691 6 5.37803V3.75C6 3.33579 5.66421 3 5.25 3ZM11.25 3.75C11.25 3.33579 11.5858 3 12 3C12.4142 3 12.75 3.33579 12.75 3.75V14.378C13.6239 14.6869 14.25 15.5203 14.25 16.5C14.25 17.4797 13.6239 18.3131 12.75 18.622V20.25C12.75 20.6642 12.4142 21 12 21C11.5858 21 11.25 20.6642 11.25 20.25V18.622C10.3761 18.3131 9.75 17.4797 9.75 16.5C9.75 15.5203 10.3761 14.6869 11.25 14.378V3.75ZM18.75 3C18.3358 3 18 3.33579 18 3.75V9.87803C17.1261 10.1869 16.5 11.0203 16.5 12C16.5 12.9797 17.1261 13.8131 18 14.122V20.25C18 20.6642 18.3358 21 18.75 21C19.1642 21 19.5 20.6642 19.5 20.25V14.122C20.3739 13.8131 21 12.9797 21 12C21 11.0203 20.3739 10.1869 19.5 9.87803V3.75C19.5 3.33579 19.1642 3 18.75 3Z" fill="black"/>
</svg>

<svg width="24" height="24" viewBox="0 0 24 24" fill="none" xmlns="http://www.w3.org/2000/svg"><path fill-rule="evenodd" clip-rule="evenodd" d="M5.25 3a.75.75 0 0 0-.75.75v1.628a2.25 2.25 0 0 0 0 4.244V20.25a.75.75 0 0 0 1.5 0V9.622a2.25 2.25 0 0 0 0-4.244V3.75A.75.75 0 0 0 5.25 3Zm6 .75a.75.75 0 0 1 1.5 0v10.628a2.251 2.251 0 0 1 0 4.244v1.628a.75.75 0 0 1-1.5 0v-1.628a2.251 2.251 0 0 1 0-4.244V3.75Zm7.5-.75a.75.75 0 0 0-.75.75v6.128a2.25 2.25 0 0 0 0 4.244v6.128a.75.75 0 0 0 1.5 0v-6.128a2.251 2.251 0 0 0 0-4.244V3.75a.75.75 0 0 0-.75-.75Z" fill="currentColor"/></svg>
